content/retired/06.getting-started-guides/_images/WebEditorLogo.svg

<svg width="147" height="129" viewBox="0 0 147 129" fill="none" xmlns="http://www.w3.org/2000/svg">
<rect width="146" height="25" transform="translate(0.25 104)" fill="#008184"/>
<path d="M15.147 113.31H12.943L11.727 119.618L11.575 110.65H8.44L9.903 123H13L14.026 117.471L15.242 123H18.301L19.479 110.65H16.534L16.572 119.694L15.147 113.31ZM22.6276 110.65V123H31.5766V120.473H25.6866V117.946H31.0636V115.476H25.6866V113.139H31.5956V110.65H22.6276ZM45.2512 119.314C45.2512 118.022 44.6432 116.616 42.3252 116.369V116.331C44.0922 115.723 44.3202 114.488 44.3202 113.576C44.3202 112.132 43.4462 110.65 40.2922 110.65H35.7132V123H41.1852C43.6172 123 45.2512 121.689 45.2512 119.314ZM40.1782 117.737C41.4702 117.737 42.0782 118.098 42.0782 119.124C42.0782 120.074 41.6032 120.473 40.5012 120.473H38.7722V117.737H40.1782ZM41.1662 114.165C41.1662 115.096 40.7292 115.438 39.5512 115.438H38.7722V113.139H39.7032C40.6532 113.139 41.1662 113.481 41.1662 114.165ZM62.0553 110.65V123H71.0043V120.473H65.1143V117.946H70.4913V115.476H65.1143V113.139H71.0233V110.65H62.0553ZM74.7039 123H78.7699C84.0139 123 84.9069 119.637 84.9069 116.711C84.9069 112.835 83.3679 110.65 78.7509 110.65H74.7039V123ZM78.6559 113.139C81.3919 113.139 81.6389 114.431 81.6389 116.844C81.6389 118.934 81.4489 120.473 78.9219 120.473H77.7629V113.139H78.6559ZM88.0745 123H97.5365V120.473H94.3255V113.177H97.5365V110.65H88.0745V113.177H91.2665V120.473H88.0745V123ZM111.116 110.65H100.761V113.139H104.409V123H107.468V113.139H111.116V110.65ZM119.034 110.479C115.291 110.479 113.866 113.234 113.866 116.958C113.866 121.043 115.5 123.19 119.053 123.19C123.024 123.19 124.335 120.397 124.335 116.825C124.335 112.113 122.549 110.479 119.034 110.479ZM119.053 120.701C117.286 120.701 117.115 119.447 117.115 116.958C117.115 113.937 117.4 112.968 119.034 112.968C120.839 112.968 121.086 113.804 121.086 116.825C121.086 119.675 120.839 120.701 119.053 120.701ZM127.464 123H130.523V119.086H132.062L133.924 123H137.534L135.121 118.478C136.47 117.756 137.154 116.464 137.154 114.773C137.154 112.398 135.862 110.65 132.442 110.65H127.464V123ZM132.138 116.635H130.523V113.139H132.081C133.506 113.139 133.905 113.69 133.905 114.792C133.905 116.16 133.202 116.635 132.138 116.635Z" fill="white"/>
<path d="M126.874 40.5158C126.874 26.4136 114.965 14.9464 100.325 14.9464C98.9692 14.9464 97.5944 15.0391 96.2381 15.2433C84.868 16.8576 77.2508 25.0405 72.9777 31.3123C68.7046 25.0405 61.0873 16.8761 49.7172 15.2433C48.361 15.0391 46.9862 14.9464 45.6299 14.9464C30.99 14.9278 19.081 26.4136 19.081 40.5158C19.081 54.6179 30.99 66.0852 45.6299 66.0852C46.9862 66.0852 48.361 65.9924 49.7172 65.8069C61.0873 64.174 68.7046 55.991 72.9777 49.7193C77.2322 55.991 84.8494 64.174 96.2381 65.8069C97.5944 66.011 98.9692 66.0852 100.325 66.0852C114.965 66.0852 126.874 54.6179 126.874 40.5158ZM48.4353 56.826C47.5064 56.9559 46.5589 57.0301 45.6299 57.0301C36.0062 57.0301 28.166 49.6079 28.166 40.5158C28.166 31.4051 36.0062 24.0014 45.6485 24.0014C46.5774 24.0014 47.5249 24.0757 48.4539 24.2055C59.1738 25.7271 65.732 36.2851 67.9614 40.5158C65.7134 44.7464 59.1552 55.2859 48.4353 56.826ZM78.0311 40.5158C80.2605 36.2851 86.8188 25.7271 97.5386 24.2055C98.4676 24.0757 99.4151 24.0014 100.344 24.0014C109.986 24.0014 117.808 31.4236 117.808 40.5158C117.808 49.6079 109.968 57.0301 100.344 57.0301C99.4151 57.0301 98.4676 56.9559 97.5386 56.826C86.8002 55.2859 80.2419 44.7279 78.0311 40.5158Z" fill="#008184"/>
<path d="M54.269 38.0107H38.3285V43.1506H54.269V38.0107Z" fill="#008184"/>
<path d="M102.09 43.132H107.478V38.0107H102.09V32.6111H96.9441V38.0107H91.5378V43.132H96.9441V48.5317H102.09V43.132Z" fill="#008184"/>
<path d="M26.624 73.6929L21.9607 88.5001H25.7136L26.4753 85.4756H30.7484L31.5659 88.5001H35.4674L30.7484 73.6929H26.624ZM27.1999 82.618L28.5561 77.1999L30.0239 82.618H27.1999Z" fill="#008184"/>
<path d="M49.4571 78.6286C49.4571 75.7896 47.9151 73.6743 43.8092 73.6743H37.8269V88.4816H41.5055V83.787H43.3633L45.5928 88.4816H49.9402L47.0419 83.0634C48.6397 82.2098 49.4571 80.6697 49.4571 78.6286ZM43.4376 80.8738H41.4869V76.6989H43.3633C45.0726 76.6989 45.537 77.3483 45.537 78.6657C45.5556 80.2986 44.7196 80.8738 43.4376 80.8738Z" fill="#008184"/>
<path d="M57.2788 73.6929H52.4297V88.5001H57.3159C63.6141 88.5001 64.6731 84.455 64.6731 80.9666C64.6731 76.3092 62.8338 73.6929 57.2788 73.6929ZM57.4831 85.4756H56.0897V76.6803H57.1673C60.4557 76.6803 60.753 78.2204 60.753 81.115C60.753 83.62 60.53 85.4756 57.4831 85.4756Z" fill="#008184"/>
<path d="M75.5415 82.7294C75.5415 84.9931 74.9284 85.7354 73.2564 85.7354C71.863 85.7354 70.9898 85.1601 70.9898 82.7108V73.6929H67.3298V83.3974C67.3298 87.8878 70.5625 88.7228 73.1077 88.7228C75.7273 88.7228 79.0901 87.795 79.0901 83.4159V73.6743H75.5601V82.7294H75.5415Z" fill="#008184"/>
<path d="M82.3599 76.7174H86.1871V85.4756H82.3599V88.5001H93.7114V85.4756H89.8657V76.7174H93.7114V73.6929H82.3599V76.7174Z" fill="#008184"/>
<path d="M105.565 82.5809L100.753 73.6929H96.7397V88.5001H100.214L100.195 79.0183L105.267 88.5001H108.983V73.6929H105.565V82.5809Z" fill="#008184"/>
<path d="M117.622 73.4888C113.126 73.4888 111.417 76.7916 111.417 81.2449C111.417 86.1436 113.386 88.7228 117.641 88.7228C122.415 88.7228 123.976 85.3828 123.976 81.0965C123.995 75.4371 121.858 73.4888 117.622 73.4888ZM117.641 85.7354C115.523 85.7354 115.318 84.2324 115.318 81.2635C115.318 77.6452 115.671 76.4762 117.622 76.4762C119.796 76.4762 120.075 77.4782 120.075 81.0965C120.093 84.5107 119.796 85.7354 117.641 85.7354Z" fill="#008184"/>
<path d="M126.8 15.7257C126.651 15.3731 126.447 15.0762 126.187 14.8164C125.945 14.5567 125.63 14.3711 125.295 14.2041C124.961 14.0742 124.608 14 124.199 14C123.809 14 123.437 14.0742 123.103 14.2227C122.768 14.3711 122.471 14.5752 122.211 14.835C121.951 15.0948 121.747 15.3917 121.598 15.7442C121.449 16.0968 121.375 16.4679 121.375 16.8761C121.375 17.2658 121.449 17.6554 121.598 18.008C121.747 18.3605 121.951 18.676 122.211 18.9172C122.453 19.177 122.768 19.3811 123.103 19.5295C123.437 19.678 123.809 19.7522 124.199 19.7522C124.589 19.7522 124.961 19.678 125.295 19.5295C125.63 19.3811 125.927 19.177 126.187 18.9172C126.447 18.6574 126.651 18.3605 126.8 18.008C126.949 17.6554 127.023 17.2843 127.023 16.8761C127.042 16.4679 126.949 16.0782 126.8 15.7257ZM126.187 17.7482C126.075 18.008 125.927 18.2492 125.722 18.4533C125.518 18.6574 125.295 18.8244 125.035 18.9357C124.775 19.0471 124.496 19.1213 124.218 19.1213C123.92 19.1213 123.642 19.0656 123.382 18.9357C123.121 18.8244 122.898 18.6574 122.694 18.4533C122.508 18.2492 122.36 18.0265 122.23 17.7482C122.118 17.4884 122.062 17.1915 122.062 16.8761C122.062 16.5607 122.118 16.2638 122.23 15.9854C122.341 15.7071 122.49 15.4659 122.694 15.2803C122.898 15.0762 123.121 14.9278 123.382 14.8164C123.642 14.7051 123.92 14.6494 124.218 14.6494C124.515 14.6494 124.794 14.7051 125.035 14.8164C125.295 14.9278 125.518 15.0762 125.722 15.2803C125.927 15.4844 126.075 15.7257 126.187 15.9854C126.298 16.2638 126.354 16.5607 126.354 16.8761C126.354 17.1915 126.298 17.4699 126.187 17.7482Z" fill="#008184"/>
<path d="M124.831 17.1544C124.998 17.0802 125.109 16.9689 125.202 16.8204C125.295 16.672 125.332 16.5235 125.332 16.338C125.332 16.0782 125.239 15.837 125.054 15.6329C124.868 15.4288 124.533 15.336 124.088 15.336C123.92 15.336 123.753 15.336 123.623 15.3546C123.493 15.3546 123.363 15.3731 123.233 15.3917V18.2121H123.939V17.2843H124.218L124.719 18.2121H125.537L124.831 17.1544ZM124.106 16.7648C124.013 16.7648 123.939 16.7648 123.902 16.7462V15.9854C123.939 15.9669 124.032 15.9669 124.143 15.9669C124.441 15.9669 124.589 16.0968 124.589 16.3751C124.589 16.6349 124.422 16.7648 124.106 16.7648Z" fill="#008184"/>
</svg>

<svg xmlns="http://www.w3.org/2000/svg" width="147" height="129" fill="none" viewBox="0 0 147 129"><path fill="#008184" d="M.25 104h146v25H.25z"/><path fill="#fff" d="M15.147 113.31h-2.204l-1.216 6.308-.152-8.968H8.44L9.903 123H13l1.026-5.529L15.242 123h3.059l1.178-12.35h-2.945l.038 9.044zm7.48-2.66V123h8.95v-2.527h-5.89v-2.527h5.377v-2.47h-5.377v-2.337h5.909v-2.489zm22.624 8.664c0-1.292-.608-2.698-2.926-2.945v-.038c1.767-.608 1.995-1.843 1.995-2.755 0-1.444-.874-2.926-4.028-2.926h-4.579V123h5.472c2.432 0 4.066-1.311 4.066-3.686m-5.073-1.577c1.292 0 1.9.361 1.9 1.387 0 .95-.475 1.349-1.577 1.349h-1.729v-2.736zm.988-3.572c0 .931-.437 1.273-1.615 1.273h-.779v-2.299h.931c.95 0 1.463.342 1.463 1.026m20.89-3.515V123h8.948v-2.527h-5.89v-2.527h5.377v-2.47h-5.377v-2.337h5.91v-2.489zM74.703 123h4.066c5.244 0 6.137-3.363 6.137-6.289 0-3.876-1.54-6.061-6.156-6.061h-4.047zm3.952-9.861c2.736 0 2.983 1.292 2.983 3.705 0 2.09-.19 3.629-2.717 3.629h-1.16v-7.334zM88.074 123h9.463v-2.527h-3.212v-7.296h3.212v-2.527h-9.463v2.527h3.192v7.296h-3.192zm23.042-12.35h-10.355v2.489h3.648V123h3.059v-9.861h3.648zm7.918-.171c-3.743 0-5.168 2.755-5.168 6.479 0 4.085 1.634 6.232 5.187 6.232 3.971 0 5.282-2.793 5.282-6.365 0-4.712-1.786-6.346-5.301-6.346m.019 10.222c-1.767 0-1.938-1.254-1.938-3.743 0-3.021.285-3.99 1.919-3.99 1.805 0 2.052.836 2.052 3.857 0 2.85-.247 3.876-2.033 3.876m8.411 2.299h3.059v-3.914h1.539l1.862 3.914h3.61l-2.413-4.522c1.349-.722 2.033-2.014 2.033-3.705 0-2.375-1.292-4.123-4.712-4.123h-4.978zm4.674-6.365h-1.615v-3.496h1.558c1.425 0 1.824.551 1.824 1.653 0 1.368-.703 1.843-1.767 1.843"/><path fill="#008184" d="M126.874 40.516c0-14.102-11.909-25.57-26.549-25.57-1.356 0-2.73.093-4.087.297-11.37 1.615-18.987 9.798-23.26 16.07-4.273-6.272-11.89-14.437-23.26-16.07a27.5 27.5 0 0 0-4.088-.297c-14.64-.018-26.549 11.468-26.549 25.57s11.909 25.57 26.549 25.57c1.356 0 2.731-.094 4.087-.28 11.37-1.632 18.988-9.815 23.26-16.087 4.255 6.272 11.872 14.455 23.261 16.088 1.356.204 2.731.278 4.087.278 14.64 0 26.549-11.467 26.549-25.57m-78.439 16.31a20 20 0 0 1-2.805.204c-9.624 0-17.464-7.422-17.464-16.514 0-9.11 7.84-16.515 17.482-16.515.93 0 1.877.075 2.806.204 10.72 1.522 17.278 12.08 19.507 16.31-2.248 4.231-8.806 14.77-19.526 16.311m29.596-16.31c2.23-4.23 8.788-14.789 19.508-16.31.929-.13 1.876-.205 2.805-.205 9.642 0 17.464 7.423 17.464 16.515s-7.84 16.514-17.464 16.514c-.929 0-1.876-.074-2.805-.204-10.739-1.54-17.297-12.098-19.508-16.31"/><path fill="#008184" d="M54.269 38.01h-15.94v5.14h15.94zM102.09 43.132h5.388v-5.121h-5.388v-5.4h-5.146v5.4h-5.406v5.121h5.406v5.4h5.146zM26.624 73.693 21.961 88.5h3.753l.761-3.024h4.273l.818 3.024h3.901l-4.719-14.807zm.576 8.925 1.356-5.418 1.468 5.418zM49.457 78.629c0-2.84-1.542-4.955-5.648-4.955h-5.982v14.808h3.678v-4.695h1.858l2.23 4.695h4.347l-2.898-5.419c1.598-.853 2.415-2.393 2.415-4.434m-6.02 2.245h-1.95v-4.175h1.876c1.71 0 2.174.65 2.174 1.967.019 1.633-.817 2.208-2.1 2.208M57.279 73.693h-4.85V88.5h4.887c6.298 0 7.357-4.045 7.357-7.533 0-4.658-1.84-7.274-7.394-7.274m.204 11.783H56.09V76.68h1.077c3.289 0 3.586 1.54 3.586 4.435 0 2.505-.223 4.36-3.27 4.36M75.542 82.73c0 2.263-.614 3.005-2.286 3.005-1.393 0-2.266-.575-2.266-3.024v-9.018h-3.66v9.704c0 4.49 3.233 5.326 5.778 5.326 2.62 0 5.982-.928 5.982-5.307v-9.742h-3.53v9.055zM82.36 76.717h3.827v8.759H82.36V88.5H93.71v-3.024h-3.845v-8.759h3.845v-3.024H82.36zM105.565 82.58l-4.812-8.887H96.74V88.5h3.474l-.019-9.482 5.072 9.482h3.716V73.693h-3.418zM117.622 73.489c-4.496 0-6.205 3.303-6.205 7.756 0 4.899 1.969 7.478 6.224 7.478 4.774 0 6.335-3.34 6.335-7.626.019-5.66-2.118-7.608-6.354-7.608m.019 12.246c-2.118 0-2.323-1.503-2.323-4.472 0-3.618.353-4.787 2.304-4.787 2.174 0 2.453 1.002 2.453 4.62.018 3.415-.279 4.64-2.434 4.64M126.8 15.726a2.8 2.8 0 0 0-.613-.91c-.242-.26-.557-.445-.892-.612a3 3 0 0 0-1.096-.204c-.39 0-.762.074-1.096.223a2.93 2.93 0 0 0-1.505 1.521 2.9 2.9 0 0 0-.223 1.132c0 .39.074.78.223 1.132s.353.668.613.91c.242.259.557.463.892.611a2.7 2.7 0 0 0 1.096.223c.39 0 .762-.074 1.096-.223a2.93 2.93 0 0 0 1.505-1.521c.149-.353.223-.724.223-1.132a2.64 2.64 0 0 0-.223-1.15m-.613 2.022c-.112.26-.26.501-.465.705a2.2 2.2 0 0 1-.687.483c-.26.111-.539.185-.817.185-.298 0-.576-.055-.836-.185a2.2 2.2 0 0 1-.688-.483 2.7 2.7 0 0 1-.464-.705 2.2 2.2 0 0 1-.168-.872q0-.473.168-.89c.111-.279.26-.52.464-.706a2.13 2.13 0 0 1 1.524-.63c.297 0 .576.055.817.166a2.14 2.14 0 0 1 1.152 1.17q.167.417.167.89c0 .316-.056.594-.167.872"/><path fill="#008184" d="M124.831 17.154a.8.8 0 0 0 .371-.334.86.86 0 0 0 .13-.482c0-.26-.093-.501-.278-.705s-.521-.297-.966-.297c-.168 0-.335 0-.465.019-.13 0-.26.018-.39.037v2.82h.706v-.928h.279l.501.928h.818zm-.725-.39c-.093 0-.167 0-.204-.018v-.76c.037-.02.13-.02.241-.02.298 0 .446.13.446.41 0 .259-.167.389-.483.389"/></svg>
